!!!COM: Boschetti, Giovanni Boschetto
!!!CDT:
!!!PTL: Il primo libro de madrigali a cinque voci
!!!PPP: Rome
!!!PPR: Giovanni Battista Robletti
!!!PDT: 1613
!!!PUB-format:
!!!RISM: B 3785
!!!OTL: Non so se il molto amaro
!!!AGN: Madrigal
!!!SCT: Tam5011978a
!!!SCA: Tam5011978a
!!!original-voices: 5
!!!extant-voices: 5
!!!complete: Y
!!!final: G
**kern	**text	**kern	**text	**kern	**text	**kern	**text	**kern	**text
*part5	*part5	*part4	*part4	*part3	*part3	*part2	*part2	*part1	*part1
*staff5	*staff5	*staff4	*staff4	*staff3	*staff3	*staff2	*staff2	*staff1	*staff1
*I"Basso	*	*I"Tenore	*	*I"Alto	*	*I"Quinto	*	*I"Canto	*
*I'B	*	*I'T	*	*I'A	*	*I'V	*	*I'C	*
*oclefF4	*	*oclefC4	*	*oclefC3	*	*oclefC1	*	*oclefC1	*
*clefF4	*	*clefGv2	*	*clefGv2	*	*clefG2	*	*clefG2	*
*k[]	*	*k[]	*	*k[]	*	*k[]	*	*k[]	*
*C:	*	*C:	*	*C:	*	*C:	*	*C:	*
*omet(C)	*	*omet(C)	*	*omet(C)	*	*omet(C)	*	*omet(C)	*
*M4/2	*	*M4/2	*	*M4/2	*	*M4/2	*	*M4/2	*
=1	=1	=1	=1	=1	=1	=1	=1	=1	=1
0r	.	1r	.	2r	.	1r	.	2g	Non
.	.	.	.	2d	Non	.	.	2dd	so
.	.	2r	.	2g	so,	4r	.	4r	.
.	.	.	.	.	.	4dd	Se il	4dd	se il
.	.	4r	.	2r	.	4dd	mol-	4dd	mol-
.	.	8f	Che	.	.	4dd	-to a-	4dd	-to a-
.	.	8e	pro-	.	.	.	.	.	.
=2	=2	=2	=2	=2	=2	=2	=2	=2	=2
0r	.	4d	-va-	1r	.	1ee	-ma-	2dd	-ma-
.	.	8c	-to ha	.	.	.	.	.	.
.	.	8B	co-	.	.	.	.	.	.
.	.	8A	-stui	.	.	.	.	2cc#X	-ro
.	.	8A	ser-	.	.	.	.	.	.
.	.	8B	-ven-	.	.	.	.	.	.
.	.	8c#X	-do, a-	.	.	.	.	.	.
.	.	2d	-man-	2r	.	2dd	-ro,	4r	.
.	.	.	.	.	.	.	.	8ff	Che
.	.	.	.	.	.	.	.	8ee	pro-
.	.	2B	-do,	2G	Non	2r	.	4dd	-va-
.	.	.	.	.	.	.	.	8ccnXi	-to ha
.	.	.	.	.	.	.	.	8b	co-
=3	=3	=3	=3	=3	=3	=3	=3	=3	=3
1r	.	4r	.	2d	so	2r	.	8a	-stui
.	.	.	.	.	.	.	.	8a	ser-
.	.	4G	Non	.	.	.	.	8b	-ven-
.	.	.	.	.	.	.	.	8cc#X	-do, a-
.	.	2d	so	2r	.	4r	.	4.dd	-man-
.	.	.	.	.	.	4a	Non	.	.
.	.	.	.	.	.	.	.	8ccnXi	.
2GG	Non	4r	.	4r	.	2dd	so,	2b	.
.	.	4d	se il	4d	se il	.	.	.	.
4D	so	4d	mol-	4d	mol-	2r	.	2a	-do,
8F	Che	4d	-to a-	4d	-to a-	.	.	.	.
8E	pro-	.	.	.	.	.	.	.	.
=4	=4	=4	=4	=4	=4	=4	=4	=4	=4
4D	-va-	2d	-ma-	1e	-ma-	2a	<Non	1r	.
8C	-to ha	.	.	.	.	.	.	.	.
8BB	co-	.	.	.	.	.	.	.	.
8AA	-stui	2c#X	-ro,	.	.	2ee	so>	.	.
8AA	ser-	.	.	.	.	.	.	.	.
8BB	-ven-	.	.	.	.	.	.	.	.
8C#X	-do, a-	.	.	.	.	.	.	.	.
2D	-man-	2r	.	2d	-ro	4r	.	4r	.
.	.	.	.	.	.	8ff	Che	4a	se il
.	.	.	.	.	.	8ee	pro-	.	.
2BB	-do,	2G	Non	2r	.	4dd	-va-	4b	mol-
.	.	.	.	.	.	8cc	-to ha	4g	-to a-
.	.	.	.	.	.	8b	co-	.	.
=5	=5	=5	=5	=5	=5	=5	=5	=5	=5
1r	.	1d	so	2r	.	8a	-stui	4f#X	-ma-
.	.	.	.	.	.	8a	ser-	.	.
.	.	.	.	.	.	8b	-ven-	4f#i	-ro,
.	.	.	.	.	.	8cc#X	-do, a-	.	.
.	.	.	.	4r	.	2dd	-man-	2a	Non
.	.	.	.	8f	Che	.	.	.	.
.	.	.	.	8e	pro-	.	.	.	.
2GG	Non	1r	.	4d	-va-	2b	-do,	2dd	so
.	.	.	.	8c	-to ha	.	.	.	.
.	.	.	.	8B	co-	.	.	.	.
2D	so	.	.	8A	-stui	2r	.	2f#X	se il
.	.	.	.	8A	ser-	.	.	.	.
.	.	.	.	8B	-ven-	.	.	.	.
.	.	.	.	8c#X	-do, a-	.	.	.	.
=6	=6	=6	=6	=6	=6	=6	=6	=6	=6
4r	.	4r	.	2d	-man-	2a	Non	2f#i	mol-
4D	se il	4d	se il	.	.	.	.	.	.
4D	mol-	4d	mol-	2A	-do,	2dd	so	2f#i	-to a-
4D	-to a-	4d	-to a-	.	.	.	.	.	.
2D	-ma-	1e	-ma-	4r	.	4r	.	2g	-ma-
.	.	.	.	4g	se il	4g	se il	.	.
2C#X	-ro,	.	.	4g	mol-	4g	mol-	2e	-ro,
.	.	.	.	4g	-to a-	4g	-to a-	.	.
=7	=7	=7	=7	=7	=7	=7	=7	=7	=7
0r	.	1d	-ro,	2g	-ma-	1a	-ma-	2r	.
.	.	.	.	2f#X	-ro,	.	.	2a	Non
.	.	2r	.	2r	.	1g	-ro,	1b	so
.	.	2G	Non	2d	Non	.	.	.	.
=8	=8	=8	=8	=8	=8	=8	=8	=8	=8
0r	.	1d	so	2f	so	4r	.	4r	.
.	.	.	.	.	.	4dd	<se il	4dd	se il
.	.	.	.	4r	.	4dd	mol-	4dd	mol-
.	.	.	.	8f	Che	4dd	-to a-	4dd	-to a-
.	.	.	.	8e	pro-	.	.	.	.
.	.	1r	.	4d	-va-	2dd	-ma-	1ee	-ma-
.	.	.	.	8c	-to ha	.	.	.	.
.	.	.	.	8B	co-	.	.	.	.
.	.	.	.	8A	-stui	2cc#X	-ro,>	.	.
.	.	.	.	8A	ser-	.	.	.	.
.	.	.	.	8B	-ven-	.	.	.	.
.	.	.	.	8c#X	-do, a-	.	.	.	.
=9	=9	=9	=9	=9	=9	=9	=9	=9	=9
4r	.	4r	.	0d	-man-	2r	.	2dd	-ro,
4G	se il	4G	se il	.	.	.	.	.	.
4G	mol-	4G	mol-	.	.	4r	.	2r	.
4G	-to a-	4G	-to a-	.	.	8b-X	Che	.	.
.	.	.	.	.	.	8a	pro-	.	.
1A	-ma-	2G	-ma-	.	.	4g	-va-	4r	.
.	.	.	.	.	.	8f	-to ha	4dd	se il
.	.	.	.	.	.	8e	co-	.	.
.	.	2F#X	-ro,	.	.	8d	-stui	4dd	mol-
.	.	.	.	.	.	8d	ser-	.	.
.	.	.	.	.	.	8e	-ven-	4dd	-to a-
.	.	.	.	.	.	8f#X	-do, a-	.	.
=10	=10	=10	=10	=10	=10	=10	=10	=10	=10
2G	-ro,	2r	.	2B	-do,	2g	-man-	2dd	-ma-
2r	.	2A	a-	2r	.	2e	-do,	2cc#X	-ro
2r	.	1d	-ma-	2r	.	8fL	ser-	4r	.
.	.	.	.	.	.	8eJ	.	.	.
.	.	.	.	.	.	4a	.	8ff	Che
.	.	.	.	.	.	.	.	8ee	pro-
2GG	a-	.	.	4g	ser-	4b-X	-ven-	4dd	-va-
.	.	.	.	[4d	-ven-	4g	-do, a-	8ccnXi	-to ha
.	.	.	.	.	.	.	.	8b-X	co-
=11	=11	=11	=11	=11	=11	=11	=11	=11	=11
1D	-ma-	8d	-ro	4d]	.	4.f	-man-	8a	-stui
.	.	4f	Che	.	.	.	.	8a	ser-
.	.	.	.	4d	-do, a-	.	.	8b	-ven-
.	.	8e	pro-	.	.	8g	.	8cc#X	-do, a-
.	.	4d	-va-	4.f	-man-	2.a	.	1dd	-man-
.	.	8c	-to ha	.	.	.	.	.	.
.	.	8B	co-	8e	.	.	.	.	.
1D	-ro,	8A	-stui	2.d	.	.	.	.	.
.	.	8A	ser-	.	.	.	.	.	.
.	.	8B	-ven-	.	.	4g	.	.	.
.	.	8c#X	-do, a-	.	.	.	.	.	.
.	.	2d	-man-	.	.	2f#X	.	2a	-do,
.	.	.	.	4A	-do,	.	.	.	.
=12	=12	=12	=12	=12	=12	=12	=12	=12	=12
4r	.	1G	-do,	0d	Pian-	1g	.	2r	.
8B	Che	.	.	.	.	.	.	.	.
8A	pro-	.	.	.	.	.	.	.	.
4G	-va-	.	.	.	.	.	.	1dd	Pian-
8F	-to ha	.	.	.	.	.	.	.	.
8E	co-	.	.	.	.	.	.	.	.
8D	-stui	2A	Pian-	.	.	2f#X	-do,	.	.
8D	ser-	.	.	.	.	.	.	.	.
8E	-ven-	.	.	.	.	.	.	.	.
8F#X	-do, a-	.	.	.	.	.	.	.	.
2G	-man-	2B	-gen-	.	.	2r	.	4.b	-gen-
.	.	.	.	.	.	.	.	16ccL	.
.	.	.	.	.	.	.	.	16ddJ	.
=13	=13	=13	=13	=13	=13	=13	=13	=13	=13
1E	-do,	1.G#X	-do	1e	-gen-	1r	.	2cc	.
.	.	.	.	.	.	.	.	4b	-do
.	.	.	.	.	.	.	.	4ee	e
1E	Pian-	.	.	1e	-do	4r	.	4b	di-
.	.	.	.	.	.	4ee	e	4cc	-spe-
.	.	4r	.	.	.	4b	di-	4g#X	-ran-
.	.	4e	e	.	.	4cc	-spe-	4g#i	-do,
=14	=14	=14	=14	=14	=14	=14	=14	=14	=14
1E	-gen-	4B	di-	4r	.	4g#X	-ran-	2r	.
.	.	4c	-spe-	4e	e	4g#i	-do,	.	.
.	.	4G#X	-ran-	4B	di-	2r	.	4r	.
.	.	4G#i	-do,	4c	-spe-	.	.	4ee	e
1E	-do,	2r	.	4G#X	-ran-	4r	.	4b	di-
.	.	.	.	4G#i	-do,	4ee	e	4cc	-spe-
.	.	4r	.	4r	.	4b	di-	4g#X	-ran-
.	.	4B	Pian-	4e	Pian-	4b	-spe-	4g#i	-do,
=15	=15	=15	=15	=15	=15	=15	=15	=15	=15
0AA	Pian-	1A	-gen-	2e	-gen-	1cc#X	-ran-	4r	.
.	.	.	.	.	.	.	.	4a	<e
.	.	.	.	4e	-do	.	.	4e	di-
.	.	.	.	4a	e	.	.	4f	-spe-
.	.	1A	-do,	4e	di-	2cc#i	-do,	4c#X	-ran-
.	.	.	.	4f	-spe-	.	.	4c#i	-do,>
.	.	.	.	4c#X	-ran-	2cc#i	Pian-	2r	.
.	.	.	.	4c#i	-do,	.	.	.	.
=16	=16	=16	=16	=16	=16	=16	=16	=16	=16
1BB	-gen-	1d	<Pian-	2r	.	1dd	-gen-	1g	Pian-
.	.	.	.	2B	Pian-	.	.	.	.
1BB	-do	1d#X	-gen-	1B	-gen-	1b	-do	1f#X	-gen-
=17	=17	=17	=17	=17	=17	=17	=17	=17	=17
2r	.	0e	-do>	2E	-do	4r	.	2g#X	-do
.	.	.	.	.	.	4ee	e	.	.
4r	.	.	.	2r	.	4b	di-	2r	.
4A	e	.	.	.	.	4cc	-spe-	.	.
4E	di-	.	.	2r	.	4g#X	-ran-	8b	e
.	.	.	.	.	.	.	.	8cc	di-
4F	-spe-	.	.	.	.	4a	-do,	4dd	-spe-
4C#X	-ran-	.	.	2A	e	2r	.	2ee	-ran-
4C#i	-do,	.	.	.	.	.	.	.	.
=18	=18	=18	=18	=18	=18	=18	=18	=18	=18
2E	e	1r	.	2B	di-	2g#i	e	2ee	-do,
4C	di-	.	.	2c	-spe-	4e	di-	2r	.
4D	-spe-	.	.	.	.	4f#i	-spe-	.	.
[1E	-ran-	2r	.	1B	-ran-	2g#X	-ran-	4r	.
.	.	.	.	.	.	.	.	4ee	e
.	.	4r	.	.	.	2g#i	-do,	4b	di-
.	.	4e	e	.	.	.	.	4cc	-spe-
=19	=19	=19	=19	=19	=19	=19	=19	=19	=19
0E_	.	4B	di-	4B	-do,	4r	.	4g#X	-ran-
.	.	4c	-spe-	4r	.	4ee	e	4g#i	-do,
.	.	4G#X	-ran-	4r	.	4b	di-	2r	.
.	.	4G#i	-do,	4e	e	4cc	-spe-	.	.
.	.	4r	.	2B	di-	2g#X	-ran-	4r	.
.	.	2e	<e	.	.	.	.	4ee	<e
.	.	.	.	2c	-spe-	2a	.	4cc	di-
.	.	8d	di-	.	.	.	.	4dd	-spe-
.	.	8c	-spe-	.	.	.	.	.	.
=20	=20	=20	=20	=20	=20	=20	=20	=20	=20
1E]	.	1B	-ran-	4G#X	-ran-	1b	.	1ee	-ran-
.	.	.	.	2A	.	.	.	.	.
.	.	.	.	4G#X	.	.	.	.	.
1AA	-do,	1c#X	-do,>	1A	-do,	1a	-do,	1ee	-do,>
=21	=21	=21	=21	=21	=21	=21	=21	=21	=21
2A	Rad-	2A	Rad-	2e	Rad-	2cc	Rad-	2.ee	Rad-
2E	-dol-	2G	-dol-	2g	-dol-	2b	-dol-	.	.
.	.	.	.	.	.	.	.	4ee	-dol-
2F	-ci-	2c	-ci-	2f	-ci-	2a	-ci-	2cc	-ci-
4F	-to	4c	-to	4f	-to	4a	-to	4cc	-to
4E	puo-	4c	puo-	4g	puo-	4g	puo-	4cc	puo-
=22	=22	=22	=22	=22	=22	=22	=22	=22	=22
4.F	-t'es-	4.c	-t'es-	4.f	-t'es-	4.a	-t'es-	4.cc	-t'es-
8G	-ser	8B	-ser	8e	-ser	8b	-ser	8cc	-ser
4A	pie-	4A	pie-	4e	pie-	4cc	pie-	4cc	pie-
4F	-na-	4A	-na-	4d	-na-	4a	-na-	4dd	-na-
1G	-men-	8GL	-men-	4d	-men-	1b	-men-	1dd	-men-
.	.	8A	.	.	.	.	.	.	.
.	.	8B	.	8eL	.	.	.	.	.
.	.	8cJ	.	8fJ	.	.	.	.	.
.	.	2d	.	2g	.	.	.	.	.
=23	=23	=23	=23	=23	=23	=23	=23	=23	=23
2C	-te;	2c	-te;	2g	-te	2cc	-te	2ee	-te
2r	.	2r	.	2r	.	4r	.	4r	.
.	.	.	.	.	.	4dd	D'al-	4b	D'al-
1r	.	4r	.	1r	.	4ee	-cun	4cc	-cun
.	.	4A	Ma,	.	.	4.cc	dol-	4.ee	dol-
.	.	8A	se	.	.	.	.	.	.
.	.	8B	più	.	.	8b	-ce	8dd	-ce
.	.	8c	ca-	.	.	4a	pre-	4cc	pre-
.	.	8A	-ro	.	.	.	.	.	.
=24	=24	=24	=24	=24	=24	=24	=24	=24	=24
1r	.	2e	vie-	2r	.	1g#X	-sen-	1b	-sen-
.	.	4e	-ne,	4r	.	.	.	.	.
.	.	4E	D'al-	4B	D'al-	.	.	.	.
4r	.	4A	-cun	4c	-cun	1a	-te,	1a	-te;
4AA	Ma,	4.c	dol-	4.e	dol-	.	.	.	.
8AA	se	.	.	.	.	.	.	.	.
8BB	più	8B	-ce	8d	-ce	.	.	.	.
8C	ca-	4A	pre-	4c	pre-	.	.	.	.
8AA	-ro	.	.	.	.	.	.	.	.
=25	=25	=25	=25	=25	=25	=25	=25	=25	=25
2E	vie-	1G#X	-sen-	1B	-sen-	2r	.	1r	.
4E	-ne,	.	.	.	.	4r	.	.	.
4E	D'al-	.	.	.	.	4b	D'al-	.	.
4A	-cun	1A	-te,	1A	-te;	4cc	-cun	4r	.
4.c	dol-	.	.	.	.	4.ee	dol-	4a	Ma,
.	.	.	.	.	.	.	.	8a	se
8B	-ce	.	.	.	.	8dd	-ce	8b	più
4A	pre-	.	.	.	.	4cc	pre-	8cc	ca-
.	.	.	.	.	.	.	.	8a	-ro
=26	=26	=26	=26	=26	=26	=26	=26	=26	=26
1G#X	-sen-	2r	.	1r	.	1b	-sen-	2ee	vie-
.	.	4r	.	.	.	.	.	4ee	-ne,
.	.	4B	D'al-	.	.	.	.	4e	D'al-
2A	-te,	4c	-cun	4r	.	1a	-te;	4a	-cun
.	.	4.e	dol-	4A	Ma,	.	.	4.cc	dol-
2r	.	.	.	8A	se	.	.	.	.
.	.	8d	-ce	8B	più	.	.	8b	-ce
.	.	4c	pre-	8c	ca-	.	.	4a	pre-
.	.	.	.	8A	-ro	.	.	.	.
=27	=27	=27	=27	=27	=27	=27	=27	=27	=27
1E	D'al-	1B	-sen-	2e	vie-	1r	.	1g#X	-sen-
.	.	.	.	4e	-ne,	.	.	.	.
.	.	.	.	4e	D'al-	.	.	.	.
4F	-cun	1A	-te,	4c	-cun	4r	.	1a	-te,
4.A	dol-	.	.	4.c	dol-	4a	Ma,	.	.
.	.	.	.	.	.	8a	se	.	.
8G	-ce	.	.	8B	-ce	8b	più	.	.
4F	pre-	.	.	4A	pre-	8cc	ca-	.	.
.	.	.	.	.	.	8a	-ro	.	.
=28	=28	=28	=28	=28	=28	=28	=28	=28	=28
1E	-sen-	2r	.	1G#X	-sen-	1ee	vie-	1b	D'al-
.	.	2B	<D'al-	.	.	.	.	.	.
4AA	-te;	4A	-cun	1A	-te;	1ee	-ne	4cc	-cun
4AA	Ma,	4.c	dol-	.	.	.	.	4.ee	dol-
8AA	se	.	.	.	.	.	.	.	.
8BB	più	8B	-ce	.	.	.	.	8dd	-ce
8C	ca-	4A	pre-	.	.	.	.	4cc	pre-
8AA	-ro	.	.	.	.	.	.	.	.
=29	=29	=29	=29	=29	=29	=29	=29	=29	=29
2E	vie-	2G#X	-sen-	2r	.	8r	.	1b	-sen-
.	.	.	.	.	.	8ee	E	.	.
.	.	.	.	.	.	8dd	più	.	.
.	.	.	.	.	.	8cc	si	.	.
4E	-ne,	4E	-te;>	4e	Ma,	8.b	gu-	.	.
.	.	.	.	.	.	16a	-sta	.	.
4G	Ma,	4r	.	2d	se	8b	do-	.	.
.	.	.	.	.	.	8cc	-po'l	.	.
4G	se	1r	.	.	.	4dd	ma-	4b	-te;
4A	più	.	.	4A	più	4cc	-le il	4cc	.
4G	ca-	.	.	4B	ca-	2b	be-	4dd	.
4E	-ro	.	.	4e	-ro	.	.	4r	.
=30	=30	=30	=30	=30	=30	=30	=30	=30	=30
1F	vie-	1r	.	2c	vie-	1a	-ne,	4r	.
.	.	.	.	.	.	.	.	4a	Ma,
.	.	.	.	4d	.	.	.	8a	se
.	.	.	.	.	.	.	.	8b	più
.	.	.	.	4A	.	.	.	8cc	ca-
.	.	.	.	.	.	.	.	8a	-ro
1E	-ne	1G#X	Ma,	1B	-ne	1r	.	2ee	vie-
.	.	.	.	.	.	.	.	2ee	-ne
=31	=31	=31	=31	=31	=31	=31	=31	=31	=31
8r	.	8A	se	0r	.	8r	.	2r	.
8A	E	8c	più	.	.	8cc	E	.	.
8G	più	8d	ca-	.	.	8b	più	.	.
8F	si	8d	-ro	.	.	8a	si	.	.
8.E	gu-	2e	vie-	.	.	8.g	gu-	8r	.
.	.	.	.	.	.	.	.	8ee	E
16D	-sta	.	.	.	.	16f	-sta	.	.
8E	do-	.	.	.	.	8g	do-	8dd	più
8F	-po'l	.	.	.	.	8a	-po'l	8cc	si
2.G	ma-	2d	-ne	.	.	2.bnX	ma-	8.b	gu-
.	.	.	.	.	.	.	.	16a	-sta
.	.	.	.	.	.	.	.	8b	do-
.	.	.	.	.	.	.	.	8cc	-po'l
.	.	2r	.	.	.	.	.	4dd	ma-
4A	-le il	.	.	.	.	4a	-le il	4cc	-le il
=32	=32	=32	=32	=32	=32	=32	=32	=32	=32
1E	be-	1r	.	1r	.	4g#X	be-	1b	be-
.	.	.	.	.	.	2a	.	.	.
.	.	.	.	.	.	4g#X	.	.	.
4AA	-ne,	8r	.	2r	.	4a	-ne,	8a	-ne,
.	.	8A	E	.	.	.	.	8cc	E
4r	.	8G	più	.	.	4r	.	8b	più
.	.	8F	si	.	.	.	.	8a	si
2r	.	8.E	gu-	8r	.	2r	.	8.g	gu-
.	.	.	.	8e	E	.	.	.	.
.	.	16D	-sta	.	.	.	.	16f	-sta
.	.	8E	do-	8B	più	.	.	8g	do-
.	.	8F	-po'l	8c	si	.	.	8a	-po'l
=33	=33	=33	=33	=33	=33	=33	=33	=33	=33
2r	.	2G	ma-	8.B	gu-	1r	.	2bnX	ma-
.	.	.	.	16A	-sta	.	.	.	.
.	.	.	.	8B	do-	.	.	.	.
.	.	.	.	8d	-po'l	.	.	.	.
8r	.	2A	-le il	4c	ma-	.	.	2a	-le il
8A	E	.	.	.	.	.	.	.	.
8G	più	.	.	4d	-le il	.	.	.	.
8F	si	.	.	.	.	.	.	.	.
8.E	gu-	4B	be-	2e	be-	2r	.	8.gL	be-
16D	-sta	.	.	.	.	.	.	16f	.
8E	do-	4B	-ne,	.	.	.	.	8g	.
8F	-po'l	.	.	.	.	.	.	8aJ	.
[2G	ma-	2r	.	2d	-ne,	4.dd	do-	4.b	.
.	.	.	.	.	.	8cc	-po'l	8a	.
=34	=34	=34	=34	=34	=34	=34	=34	=34	=34
2G]	.	8r	.	8r	.	4.b	ma-	2g	.
.	.	8e	E	8g	E	.	.	.	.
.	.	8d	più	8f	più	.	.	.	.
.	.	8c	si	8e	si	8a	-le il	.	.
2GG	-le il	8.B	gu-	8.d	gu-	4g	be-	2dd	-ne,
.	.	16A	-sta	16c	-sta	.	.	.	.
.	.	8B	do-	8d	do-	4g	-ne,	.	.
.	.	8c	-po'l	8e	-po'l	.	.	.	.
1D	be-	1d	ma-	4.f#X	ma-	8r	.	8r	.
.	.	.	.	.	.	8b	E	8dd	E
.	.	.	.	.	.	8a	più	8cc	più
.	.	.	.	8g	.	8g	si	8b	si
.	.	.	.	4a	.	8f#X	gu-	8.a	gu-
.	.	.	.	.	.	8e	-sta	.	.
.	.	.	.	.	.	.	.	16g	-sta
.	.	.	.	4d	-le	8f#X	do-	8a	do-
.	.	.	.	.	.	8g	-po'l	8b	-po'l
=35	=35	=35	=35	=35	=35	=35	=35	=35	=35
2C	.	2e	-le il	4r	.	4a	ma-	4cc	ma-
.	.	.	.	4G	il	2g	-le il	4b	-le il
2D	.	2A	be-	2d	be-	.	.	2a	be-
.	.	.	.	.	.	4f#X	be-	.	.
=36	=36	=36	=36	=36	=36	=36	=36	=36	=36
00GGl	-ne.	00Gl	-ne.	00dl	-ne.	00gl	-ne.	00bl	-ne.
==	==	==	==	==	==	==	==	==	==
*-	*-	*-	*-	*-	*-	*-	*-	*-	*-
!!!system-decoration: [*]
!!!RDF**kern: i = editorial accidental
!!!RDF**kern: l = terminal long
!!!ENC: Emiliano Ricciardi
!!!END: 2019/01/18
!!!EED: Coluzzi, Seth
!!!EEV: 2019/01/21
!!!YEC: Copyright 2018 Emiliano Ricciardi, All Rights Reserved
!!!ONB: Translated from MusicXML on 2019/01/21
!!@@BEGIN:	VERSEDATA
!!@CATALOGNUM:	Tam5011978
!!@LAST_MODIFIED: 2020/07/12
!!@ACT:         V
!!@SCENE:       1
!!@VERSE:       1978
!!@TITLE:       Non so se il molto amaro
!!@MANUSRC:	A-Am, A-Au, A-Br, A-CM, A-F, A-Ub
!!@PRINTSRC:	A-1580D, A-1580M, A-1581B, A-1581B<sub>bis</sub>, A-1581M, A-1581M<sub>bis</sub>, A-1581O, A-1581V, A-1582B, A-1583M, A-1583V, A-1584A, A-1585C, A-1585V, A-1585V<sub>bis</sub>, A-1588B, A-1589M, A-1589V, A-1590Mb, A-1590Mv, A-1591M, A-1591W, A-1592B, A-1596B, A-1596M, A-1599Bf, A-1599Bp, A-1600R, A-1601Bf, A-1601Bp, A-1602B, A-1603Bf, A-1603Bv, A-1603Z, A-1605R, A-1606Z, A-1608D, A-1608DP, A-1609Bf, A-1609Bv, A-1609Z, A-1611D, A-1614GT, A-1617D, A-1618B, A-1619D, A-1619I, A-1620V, A-1622D, A-1623A, A-1624M, A-1624S, A-1624T, A-1625U, A-1628U, A-1632D, A-1634R
!!@@BEGIN:	VERSES
!!@ABOUTIT:	
!!@ABOUTEN:	
!!@EDITOR:	Solerti, Angelo
!!@EDITION_TITLE: Opere minori in versi di Torquato Tasso. Edizione critica sugli autografi e sulle antiche stampe.
!!@EDITION_LOC:	Bologna
!!@EDITION_PUB:	Zanichelli
!!@EDITION_DATE:  1895
!!@EDITION_VOL:	3
!!@EDITION_PAGE:
!!@TRANSLATOR:	Emiliano Ricciardi and Amyrose McCue Gill
!!@VERSE:	
!!	CORO
!!	Non so se il molto amaro
!!	Che provato ha costui servendo, amando,
!!	Piangendo e disperando,
!!	Raddolcito esser puote pienamente
!!	D'alcun dolce presente;
!!	Ma, se più caro viene
!!	E più si gusta doppo il male il bene,
!!	Io non ti cheggio, Amore,
!!	Questa beatitudine maggiore.
!!	Bea pur gli altri in tal guisa:
!!	Me la mia ninfa accoglia
!!	Dopo brevi preghiere e servir breve:
!!	E siano i condimenti
!!	De le nostre dolcezze
!!	Non sì gravi tormenti,
!!	Ma soavi disdegni
!!	E soavi repulse,
!!	Risse e guerra cui segua,
!!	Reintegrando i cuori, o pace o tregua.
!!@TVERSE:
!!	CHORUS
!!	I do not know if the great bitterness
!!	That this man partook of serving, loving,
!!	Weeping, and despairing,
!!	Might be sweetened fully again
!!	By any present sweet;
!!	But, if dearer it becomes,
!!	And, the more one tastes, after the bad, the good,
!!	I do not ask of you, Love,
!!	This greater blessing.
!!	Bless, too, others in this way:
!!	May my nymph embrace me
!!	After few petitions and brief service:
!!	And may the accompaniments
!!	To our sweetnesses
!!	Be not such grave torments,
!!	But gentle scorns
!!	And gentle refusals,
!!	[And may whatever] brawls and war that follow
!!	Bring together again our hearts as one, in peace or truce.
!!@@END:		VERSES
!!@NEW_CRIT_ED:
!!@ATTRIBUTION_ABOUT:	
!!@DATING:	1573
!!@DEDICATEE:	
!!@COMMENTARY:
!!@@END:		VERSEDATA
!!@@BEGIN: SETTING
!!@CATALOGNUM:	Tam5011978a
!!@ACT:		V
!!@SCENE:		1
!!@VERSE:		1978
!!@TITLE:		Non so se il molto amaro
!!@COMPOSER:	Boschetti, Giovanni Boschetto
!!@PRINCEPSTITLE:	Il primo libro de madrigali a cinque voci
!!@PRINCEPSLOC:	Rome
!!@NORMLOC:	Rome
!!@NORMPUB:	Giovanni Battista Robletti
!!@NORMPUBSHORT:	Robletti
!!@PRINCEPSPUB:	Giovanni Battista Robletti
!!@PRINCEPSYEAR:	1613
!!@PRINCEPSRISM:	B 3785
!!@OVOICES:	5
!!@EXTANTVOICES:	5
!!@OMENSURATION:	C
!!@OCLEFS:	C1,C1,C3,C4,F4
!!@OTIME:		
!!@OKEYSIG:	-
!!@FINAL:		G
!!@TIMPEDITOR:	Coluzzi, Seth
!!@PARTS:		1 of 1
!!@REPRINTS:	
!!@@END: SETTING
